X: 15
T:Peasants Dance,The. JB.15
T:Pheasant's Dance,aka. JB15
M:6/8
L:1/8
S:James Biggins MS, Leeds, 1779.
R:Jig
O:England
A:Yorkshire
N:Vickers"Pheasants Dance".
Z:vmp.Nick Barber & Chris Partington
K:A
c2d efe|d2c Bcd|ecAF2B|GEGA3|!
|c2-Ad2-B|c2-AB2-a|ecAF2B|GEGA3|!
|a2e aec|a2-ca2-B|cdeF2B|GEGA3|!
|cecd2f|B2-dA2-e|A2-c BdB|GEGA3|]
